icons/svg/highlighter.svg

<svg width="24" height="24" viewBox="0 0 24 24" fill="none" xmlns="http://www.w3.org/2000/svg">
<path d="M3.75 2.75V6.25C3.75 8.183 5.317 9.75 7.25 9.75H16.75C18.683 9.75 20.25 8.183 20.25 6.25V2.75" stroke="currentColor" stroke-width="1.5" stroke-linecap="round" stroke-linejoin="round"/>
<path d="M5.75 9.75H18.25V11.55C18.25 12.765 17.265 13.75 16.05 13.75H7.95C6.73497 13.75 5.75 12.765 5.75 11.55V9.75Z" stroke="currentColor" stroke-width="1.5" stroke-linecap="round" stroke-linejoin="round"/>
<path d="M16.25 13.75H7.75V19.4126C7.75 20.3095 8.63686 20.937 9.48266 20.6385L14.9156 18.721C15.7153 18.4387 16.25 17.6829 16.25 16.835V13.75Z" stroke="currentColor" stroke-width="1.5" stroke-linecap="round" stroke-linejoin="round"/>
</svg>

<svg xmlns="http://www.w3.org/2000/svg" width="24" height="24" fill="none" viewBox="0 0 24 24"><path stroke="currentColor" stroke-linecap="round" stroke-linejoin="round" stroke-width="1.5" d="M3.75 2.75v3.5a3.5 3.5 0 0 0 3.5 3.5h9.5a3.5 3.5 0 0 0 3.5-3.5v-3.5m-14.5 7h12.5v1.8a2.2 2.2 0 0 1-2.2 2.2h-8.1a2.2 2.2 0 0 1-2.2-2.2zm10.5 4h-8.5v5.663a1.3 1.3 0 0 0 1.733 1.226l5.433-1.918a2 2 0 0 0 1.334-1.886z"/></svg>
